X: 638
T: Nellie O'Donovan
C: anon.
O: Ireland
B: Francis O'Neill: "The Dance Music of Ireland" (1907) no. 638
R: Reel
Z: Transcribed by Frank Nordberg - http://www.musicaviva.com
F: http://www.musicaviva.com/abc/tunes/ireland/oneill-1001/oneill-1001-063
8.abc
M: C|
L: 1/8
K: G
B2Bd dcAc|BGGB d2cA|B2Bd dcAc|d2cA BGGA|B2Bd dcAc|BGGB d2cA|BABc dcAc|dBc
A BGGe||
fgaf gfeg|fdcA Adde|fgaf gfeg|fdcA AGGe|fgaf gfeg|fdcA Adde|fefg abag|fdc
A AGGA|]
W:
W:
W: From Musica Viva - http://www.musicaviva.com
W: the Internet center for free sheet music downloads.


